X:463
T: ET LEIT SEK EN BUUR
N: E1717A
O: Europa, Mitteleuropa, Deutschland, Bergisches Land
R: Spott - Lied auf betruegerische Schneider
M: 6/8
L: 1/8
K: F
F | cccc2f | c2BA2
F | cccc2f | c2BA2
c | cBGAFc | cBGAF
c | cBGAFc | cBGAF
F | GAGF2F | GAGF
cF | GAGF2F | GAGF2

@@@ Tune index: 5147
